public/assets/images/icons/red/export/campusnavi.svg

<svg width="16" height="16" xmlns="http://www.w3.org/2000/svg" viewBox="0 0 16 16" shape-rendering="geometricPrecision" fill="#cb1800"><defs><mask id="a"><rect fill="#fff" width="100%" height="100%"/><path d="M13.848-1.1L12.051.695l.286.287A4.455 4.455 0 0 0 9.23 5.236v.987h2.626v-.988c0-.491.191-.954.538-1.302l.03-.03 1.425 1.421 3.212-3.213L13.848-1.1z" fill="#000"/></mask></defs><path d="M13.848-.04l-.736.735.821.821h-.234l-.156.008A3.722 3.722 0 0 0 9.98 5.235v.237h1.126v-.237c0-.691.27-1.343.759-1.833a2.579 2.579 0 0 1 1.833-.759h.3l-.886.887.735.734L16 2.111 13.848-.04z"/><g mask="url(#a)"><path d="M4.271 11.728l4.866-2.562L11.699 4.3 6.833 6.863l-2.562 4.865zm2.958-4.469a1.068 1.068 0 1 1 1.512 1.512 1.068 1.068 0 1 1-1.512-1.512z"/><path d="M8.001 1.01a6.99 6.99 0 0 0 0 13.979 6.99 6.99 0 0 0 0-13.979zm1.144 12.445L8 12.31l-1.145 1.145a5.588 5.588 0 0 1-4.31-4.309L3.69 8 2.546 6.855a5.588 5.588 0 0 1 4.309-4.31L8 3.69l1.145-1.145a5.59 5.59 0 0 1 4.31 4.31L12.31 8l1.146 1.146a5.585 5.585 0 0 1-4.311 4.309z"/></g></svg>

<?xml version="1.0"?><!DOCTYPE svg PUBLIC "-//W3C//DTD SVG 1.1//EN" "http://www.w3.org/Graphics/SVG/1.1/DTD/svg11.dtd"><svg width="16px" height="16px" xmlns="http://www.w3.org/2000/svg" viewBox="0 0 16 16" shape-rendering="geometricPrecision" fill="#cb1800"><defs><mask id="export-path"><rect fill="#fff" width="100%" height="100%"/><path d="M13.848-1.1l-1.797,1.795l0.286,0.287c-1.812,0.575-3.107,2.263-3.107,4.254v0.987h2.626 V5.235c0-0.491,0.191-0.954,0.538-1.302c0.01-0.01,0.021-0.02,0.03-0.03l1.425,1.421l3.212-3.213L13.848-1.1z" fill="#000"/></mask></defs><path id="export" display="inline" d="M13.848-0.04l-0.736,0.735l0.821,0.821h-0.234 l-0.156,0.008c-1.978,0.084-3.563,1.714-3.563,3.711v0.237h1.126V5.235c0-0.691,0.27-1.343,0.759-1.833 c0.49-0.489,1.141-0.759,1.833-0.759h0.237V2.643h0.063L13.112,3.53l0.735,0.734L16,2.111L13.848-0.04z" fill="#cb1800"/><g mask="url(#export-path)"><g><path d="M4.271,11.728l4.866-2.562l2.562-4.866L6.833,6.863L4.271,11.728z M7.229,7.259c0.418-0.418,1.095-0.418,1.512,0 c0.418,0.418,0.418,1.095,0,1.512c-0.418,0.418-1.095,0.418-1.512,0C6.811,8.353,6.811,7.676,7.229,7.259z"/><path d="M8.001,1.01c-3.861,0-6.99,3.13-6.99,6.993c0,3.858,3.13,6.985,6.99,6.986c3.86-0.002,6.987-3.129,6.989-6.986 C14.99,4.14,11.861,1.01,8.001,1.01z M9.145,13.455L8,12.31l-1.145,1.145c-2.159-0.454-3.857-2.152-4.31-4.309L3.69,8 L2.546,6.855C3,4.696,4.697,2.999,6.855,2.545L8,3.69l1.145-1.145C11.303,2.998,13,4.696,13.455,6.855L12.31,8l1.146,1.146 C13.003,11.304,11.305,13.002,9.145,13.455z"/></g></g></svg>
